X: 2
T: The Roscommon
R: reel
M: 4/4
L: 1/8
K: Edor
D|EFGA B2GB|AF~F2 dFAF|EFGA B2dB|AFDE FEE:|d|eB~B2 efge|fa~a2 bfaf|eB~B2 efge|fagf efgf|eB~B2 efge|fa~a2 bgaf|~g3e ~f3e|dBAF EFGA||B2BA BcdB|AF~F2 BFAF|EFGA B2dB|AFDE FEED|dBBA B2dB|AF~F2 BFAF|EFGA B2dB|AFDE FEED||


Tune 637	Setting 637

